X:1
T:I Will Sing of My Savior
T:I Will Sing of My Savior
T:J. W. Cullom
T:J. W. Cullom, 1909
T:Public Domain Courtesy of the Cyber Hymnal™
T:Public Domain Courtesy of the Cyber Hymnal™
C:J. W. Cullom
Z:Public Domain
Z:Courtesy of the Cyber Hymnal™
%%score ( 1 2 ) 3
L:1/8
Q:1/4=98
M:4/4
K:F
V:1 treble 
V:2 treble 
V:3 bass 
V:1
 C[CF] | [FA]2 [FG][FA] F2 [FA][GB] | [Ac]2 [FA][GB] [Ac]2 F[FG] | [FA]2 [FA]C [EG]2 [EG][EA] | %4
w: 1.~I will|sing of my Sav- ior and|tell of His love, His com-|pas- sion so bound- less and|
w: 2.~There were|ma- ny sad years, full of|grief and of fears, And my|bond- age in- creased day by|
w: 3.~Now by|day and by night, all my|path- way is bright, And my|heart sings a- loud in His|
 F6 C[CF] | [FA]2 [FG][FA] F2 [FA][GB] | [Ac]2 [FA][GB] [Ac]2 F[FG] | [FA]2 [FA]C [EG]2 [EG][EA] | %8
w: free; He went|down in- to death to de-|liv- er my soul, And He|brought full sal- va- tion to|
w: day But He|threw in His light, and dis-|pelled all my night, And my|dark- ness all van- ished a-|
w: praise; Full sal-|va- tion com- plete, all my|foes ’neath my feet, And I|run with de- light in His|
 F6 ||"^Refrain" [CF]2 | [DF]2 [FB][Fd] [Ff]2 [Fe][Fd] | [Fc]2 [FA][GB] [Ac]2 F[FG] | %12
w: me.||||
w: way.|I’ll|tell in glad strains how He’s|bro- ken my chains, And thrown|
w: ways.||||
 [FA]2 [FA][FA] [FA]2 [FG]F | [EG]6 C[CF] | [FA]2 [FG][FA] F2 [FA][GB] | %15
w: |||
w: o- pen my pri- son be-|low; Bound- ing|high on glad wing, like a|
w: |||
 [Ac]2 [FA][GB] [Ac]2 [FA][Fc] | !fermata![Af]2 F[FG] [FA]2 [FA][EG] | F6 |] %18
w: |||
w: bird I will sing, How He|saved me from sor- row and|woe.|
w: |||
V:2
 C x | x4 F2 x2 | x6 F x | x3 C x4 | F6 C x | x4 F2 x2 | x6 F x | x3 C x4 | F6 || x2 | x8 | %11
 x6 F x | x7 F | x6 C x | x4 F2 x2 | x8 | x2 F x5 | F6 |] %18
V:3
 [F,A,][F,A,] | [F,C]2 [F,B,][F,C] [F,A,]2 [F,C][F,C] | [F,F]2 [F,C][F,C] [F,F]2 [F,A,][F,B,] | %3
 [F,C]2 [F,C][F,A,] [C,B,]2 [C,B,][C,C] | [F,A,]6 [F,A,][F,A,] | %5
 [F,C]2 [F,B,][F,C] [F,A,]2 [F,C][F,C] | [F,F]2 [F,C][F,C] [F,F]2 [F,A,][F,B,] | %7
 [F,C]2 [F,C][F,A,] [C,B,]2 [C,B,][C,C] | [F,A,]6 || [F,A,]2 | %10
 [B,,B,]2 [B,,D][B,,B,] [B,,D]2 [B,,C][B,,B,] | [F,A,]2 [F,C][F,C] [F,F]2 [F,A,][F,B,] | %12
 [F,C]2 [F,C] [F,C]2 [F,C][F,B,][F,A,] | [C,C]6 [F,A,][F,A,] | %14
 [F,C]2 [F,B,][F,C] [F,A,]2 [F,C][F,C] | [F,F]2 [F,C][F,C] [F,F]2 [F,C][F,A,] | %16
 !fermata![F,C]2 [A,,C][B,,D] [C,C]2 [C,C][C,B,] | [F,A,]6 |] %18

